X: 247
T: The Scaffold is Empty -Duplicatino of b No.214
N: Derived from The_Scaffold_Is_Empty-Duplication_(b)_of_No_214.krn
%%abc-version 2.0
%%abcx-abcm2ps-target-version 5.9.1 (29 Sep 2008)
%%abc-creator hum2abc beta
%%abcx-conversion-date 2019/03/15 08:38:45
%%humdrum-veritas 3951988666
%%humdrum-veritas-data 259386648
%%linebreak <none>
%%barnumbers 0
L: 1/4
M: 2/4
K: D clef=bass
[K:clef=bass][M:2/4]A,A, | 
F,/E,/D, | 
D,z | 
E,B,, | 
D,/D,/B,, | 
B,,2 | 
D,/B,,/D, | 
D,/D,/D, | 
E,z | 
E,B,, | 
D,/D,/B,, | 
B,,z ]|:  
A,/A,/ A,/A,/ ||  
[M:3/4]A,F,/E,/D, ||  
[M:2/4]E,z | 
E,D, | 
D,/D,/D, | 
E,z | 
E,B,, | 
D,/D,/B,, | 
B,,2 | 
A,A, | 
F,/E,/D, | 
E,z | 
E,B,, | 
D,/D,/B,, | 
B,,2 | 
D,/B,,/D, | 
D,/D,/D, | 
E,z | 
E,B,, | 
D,/D,/B,, | 
B,,z :|]  
B,,F,/D,/ ||  
[M:3/4]F,2-F,/A,,/ | 
A,,//A,,//A,,/ B,,/A,,/z |]  
